htdocs/bitrix/js/ui/icons/service/images/ui-service-estore.svg

<svg width="42" height="42" viewBox="-11 -11 42 42" fill="none" xmlns="http://www.w3.org/2000/svg">
<path fill-rule="evenodd" clip-rule="evenodd" d="M4.17383 13.5L2.67383 7.5H16.6738L15.6738 13.5H4.17383ZM18.0816 0L17.6162 2.99979L1.29999 2.99998C0.466466 2.99999 -0.151698 3.77336 0.0319448 4.5864L2.39639 15.0544H17.4436L19.2269 3.86072L19.5906 1.95225H23.8574L23.6736 0H18.0816ZM14.8124 19.5001C14.176 19.5001 13.6582 18.9946 13.6582 18.3752C13.6582 17.7557 14.176 17.2502 14.8124 17.2502C15.4519 17.2502 15.9681 17.7557 15.9681 18.3752C15.9681 18.9946 15.4519 19.5001 14.8124 19.5001V19.5001ZM14.8123 15.7504C13.3268 15.7504 12.1172 16.9263 12.1172 18.3752C12.1172 19.8226 13.3268 21 14.8123 21C16.3008 21 17.5105 19.8226 17.5105 18.3752C17.5105 16.9263 16.3008 15.7504 14.8123 15.7504V15.7504ZM5.02484 19.5001C4.38689 19.5001 3.86914 18.9946 3.86914 18.3752C3.86914 17.7557 4.38689 17.2502 5.02484 17.2502C5.66279 17.2502 6.18054 17.7557 6.18054 18.3752C6.18054 18.9946 5.66279 19.5001 5.02484 19.5001V19.5001ZM5.02476 15.7504C3.53776 15.7504 2.32812 16.9263 2.32812 18.3752C2.32812 19.8226 3.53776 21 5.02476 21C6.51176 21 7.7214 19.8226 7.7214 18.3752C7.7214 16.9263 6.51176 15.7504 5.02476 15.7504V15.7504Z" fill="white"/>
</svg>

<svg width="42" height="42" viewBox="-11 -11 42 42" fill="none" xmlns="http://www.w3.org/2000/svg"><path fill-rule="evenodd" clip-rule="evenodd" d="M4.174 13.5l-1.5-6h14l-1 6h-11.5zM18.082 0l-.466 3H1.3A1.3 1.3 0 0 0 .032 4.586l2.364 10.468h15.048l1.783-11.193.364-1.909h4.266L23.674 0h-5.592zm-3.27 19.5c-.636 0-1.154-.505-1.154-1.125s.518-1.125 1.154-1.125c.64 0 1.156.506 1.156 1.125 0 .62-.516 1.125-1.156 1.125zm0-3.75c-1.485 0-2.695 1.176-2.695 2.625 0 1.448 1.21 2.625 2.695 2.625 1.489 0 2.699-1.177 2.699-2.625 0-1.449-1.21-2.625-2.699-2.625zM5.025 19.5c-.638 0-1.156-.505-1.156-1.125s.518-1.125 1.156-1.125c.638 0 1.156.506 1.156 1.125 0 .62-.518 1.125-1.156 1.125zm0-3.75c-1.487 0-2.697 1.176-2.697 2.625 0 1.448 1.21 2.625 2.697 2.625s2.696-1.177 2.696-2.625c0-1.449-1.21-2.625-2.696-2.625z" fill="#fff"/></svg>
